source/_/img/cipher.svg

<?xml version="1.0" encoding="UTF-8"?>
<svg width="1072px" height="1072px" viewBox="0 0 1072 1072" version="1.1" xmlns="http://www.w3.org/2000/svg" xmlns:xlink="http://www.w3.org/1999/xlink">
    <!-- Generator: Sketch 46 (44423) - http://www.bohemiancoding.com/sketch -->
    <title>cipher</title>
    <desc>Created with Sketch.</desc>
    <defs>
        <linearGradient x1="50%" y1="0%" x2="50%" y2="100%" id="linearGradient-1">
            <stop stop-color="#3949AB" offset="0%"></stop>
            <stop stop-color="#1A237E" offset="100%"></stop>
        </linearGradient>
    </defs>
    <g id="Page-1" stroke="none" stroke-width="1" fill="none" fill-rule="evenodd">
        <g id="Custom-Preset" transform="translate(-64.000000, 0.000000)">
            <g id="Group-4" transform="translate(64.000000, 0.000000)">
                <g id="cipher">
                    <g id="Group-3">
                        <circle id="Oval-2" fill="url(#linearGradient-1)" cx="535.714286" cy="535.714286" r="535.714286"></circle>
                        <g id="Group-2" transform="translate(535.786787, 535.931163) rotate(-315.000000) translate(-535.786787, -535.931163) translate(214.153353, 214.400356)" fill="#FFFFFF">
                            <g id="Group">
                                <path d="M66.8138042,0 L244.714665,0 C281.61491,-6.77846506e-15 311.528469,29.9135591 311.528469,66.8138042 L311.528469,244.714665 C311.528469,281.61491 281.61491,311.528469 244.714665,311.528469 L66.8138042,311.528469 C29.9135591,311.528469 4.51897671e-15,281.61491 0,244.714665 L0,66.8138042 C-4.51897671e-15,29.9135591 29.9135591,6.77846506e-15 66.8138042,0 Z M155.764235,214.175823 C188.024064,214.175823 214.175823,188.024064 214.175823,155.764235 C214.175823,123.504405 188.024064,97.3526467 155.764235,97.3526467 C123.504405,97.3526467 97.3526467,123.504405 97.3526467,155.764235 C97.3526467,188.024064 123.504405,214.175823 155.764235,214.175823 Z" id="Combined-Shape"></path>
                                <path d="M397.80961,25.0583698 C374.746957,25.0583698 356.050982,43.7543442 356.050982,66.8169974 L356.050982,244.717859 C356.050982,267.780512 374.746957,286.476486 397.80961,286.476486 L575.710471,286.476486 C598.773124,286.476486 617.469099,267.780512 617.469099,244.717859 L617.469099,66.8169974 C617.469099,43.7543442 598.773124,25.0583698 575.710471,25.0583698 L397.80961,25.0583698 Z M397.80961,0.00319320468 L575.710471,0.00319320468 C612.610716,0.00319320468 642.524275,29.9167523 642.524275,66.8169974 L642.524275,244.717859 C642.524275,281.618104 612.610716,311.531663 575.710471,311.531663 L397.80961,311.531663 C360.909365,311.531663 330.995806,281.618104 330.995806,244.717859 L330.995806,66.8169974 C330.995806,29.9167523 360.909365,0.00319320468 397.80961,0.00319320468 Z" id="Combined-Shape" fill-rule="nonzero"></path>
                                <circle id="Oval" cx="486.76004" cy="155.767428" r="58.411588"></circle>
                                <path d="M66.8138042,330.998999 L244.714665,330.998999 C281.61491,330.998999 311.528469,360.912558 311.528469,397.812803 L311.528469,575.713664 C311.528469,612.613909 281.61491,642.527468 244.714665,642.527468 L66.8138042,642.527468 C29.9135591,642.527468 4.51897671e-15,612.613909 0,575.713664 L0,397.812803 C-4.51897671e-15,360.912558 29.9135591,330.998999 66.8138042,330.998999 Z M155.764235,545.174822 C188.024064,545.174822 214.175823,519.023063 214.175823,486.763234 C214.175823,454.503404 188.024064,428.351646 155.764235,428.351646 C123.504405,428.351646 97.3526467,454.503404 97.3526467,486.763234 C97.3526467,519.023063 123.504405,545.174822 155.764235,545.174822 Z" id="Combined-Shape"></path>
                                <path d="M397.812803,330.998999 L575.713664,330.998999 C612.613909,330.998999 642.527468,360.912558 642.527468,397.812803 L642.527468,575.713664 C642.527468,612.613909 612.613909,642.527468 575.713664,642.527468 L397.812803,642.527468 C360.912558,642.527468 330.998999,612.613909 330.998999,575.713664 L330.998999,397.812803 C330.998999,360.912558 360.912558,330.998999 397.812803,330.998999 Z M486.763234,545.174822 C519.023063,545.174822 545.174822,519.023063 545.174822,486.763234 C545.174822,454.503404 519.023063,428.351646 486.763234,428.351646 C454.503404,428.351646 428.351646,454.503404 428.351646,486.763234 C428.351646,519.023063 454.503404,545.174822 486.763234,545.174822 Z" id="Combined-Shape"></path>
                            </g>
                        </g>
                    </g>
                </g>
            </g>
        </g>
    </g>
</svg>

<svg width="1072" height="1072" xmlns="http://www.w3.org/2000/svg"><defs><linearGradient x1="50%" y1="0%" x2="50%" y2="100%" id="a"><stop stop-color="#3949AB" offset="0%"/><stop stop-color="#1A237E" offset="100%"/></linearGradient></defs><g fill="none" fill-rule="evenodd"><circle fill="url(#a)" cx="535.714" cy="535.714" r="535.714"/><g transform="rotate(45 169.906 687.237)" fill="#FFF"><path d="M66.814 0h177.9c36.9 0 66.814 29.914 66.814 66.814v177.9c0 36.9-29.913 66.814-66.813 66.814H66.814C29.914 311.528 0 281.615 0 244.715V66.814C0 29.914 29.914 0 66.814 0zm88.95 214.176c32.26 0 58.412-26.152 58.412-58.412s-26.152-58.411-58.412-58.411-58.411 26.151-58.411 58.411c0 32.26 26.151 58.412 58.411 58.412z"/><path d="M397.81 25.058c-23.063 0-41.759 18.696-41.759 41.759v177.9c0 23.064 18.696 41.76 41.759 41.76h177.9c23.063 0 41.76-18.696 41.76-41.76v-177.9c0-23.063-18.697-41.759-41.76-41.759h-177.9zm0-25.055h177.9c36.9 0 66.814 29.914 66.814 66.814v177.9c0 36.901-29.913 66.815-66.814 66.815h-177.9c-36.9 0-66.814-29.914-66.814-66.814V66.817c0-36.9 29.913-66.814 66.814-66.814z" fill-rule="nonzero"/><circle cx="486.76" cy="155.767" r="58.412"/><path d="M66.814 330.999h177.9c36.9 0 66.814 29.914 66.814 66.814v177.9c0 36.9-29.913 66.814-66.813 66.814H66.814C29.914 642.527 0 612.614 0 575.714V397.813c0-36.9 29.914-66.814 66.814-66.814zm88.95 214.176c32.26 0 58.412-26.152 58.412-58.412s-26.152-58.411-58.412-58.411-58.411 26.151-58.411 58.411c0 32.26 26.151 58.412 58.411 58.412zm242.049-214.176h177.9c36.9 0 66.814 29.914 66.814 66.814v177.9c0 36.9-29.913 66.814-66.813 66.814H397.813c-36.9 0-66.814-29.913-66.814-66.813V397.813c0-36.9 29.914-66.814 66.814-66.814zm88.95 214.176c32.26 0 58.412-26.152 58.412-58.412s-26.152-58.411-58.412-58.411-58.411 26.151-58.411 58.411c0 32.26 26.151 58.412 58.411 58.412z"/></g></g></svg>
